X: 27832
T: Moth In The Lantern, The
R: jig
M: 6/8
K: Aminor
M:7/8
|:EAB ecec|GAB dBdB|EAc ecec|cAc efcA|
EAB ecec|GAB dBdB|edc defg|ecB A2 A2:|
|:EAc BABA|cBc dede|EAc BABA|cBA _BAGA|
EAc BABA|cBc dBcd|edc defg|ecB A2 A2:|
|:eAA cAcA|dBG BGBd|eAA cAcA|def defg|
eAA cAcA|dBG BGBd|edc defg|ecB A2 A2:|

